!!!COM: Music21
!!!OTL: Jota do Ateneo
!!!OMV: pezas_jotas_jota-do-ateneo_jota-do-ateneo-partitura.musicxml
**kern
*part1
*staff1
*I"Gaita
*I'Bag
*clefG^2
*k[]
*M3/8
*MM88
=1
!LO:TX:a:t=[eighth]=176
8r
16cccLL
16gg
16ccc
16ggJJ
=||
8eeL
16eeL
16ddJ
8ccJ
=
16eeLL
16dd
16ee
16ff
16gg
16cccJJ
=
8aaL
16aaL
16ffJ
[8ddJ
.
=
8ddL]
16ffL
16gg
16aa
16ffJJ
=
8bbL
16ffL
16gg
16aa
16ffJJ
=
16bbLL
16aa
16gg
16aa
16gg
16ddJJ
!!linebreak:original
=
8eeL
16eeL
16ffJ
[8ggJ
.
!!linebreak:original
=
8ggL]
16cccL
16gg
16ccc
16ggJJ
=
8eeL
16eeL
16ddJ
8ccJ
=
16eeLL
16dd
16ee
16ff
16gg
48ccL
48dd
48ddJJJ
=
8ffL
16ffL
.
16ggJ
.
[8aaJ
=
8aaL]
16ffL
16aa
16ff
16aaJJ
=
16ggLL
16ee
16cc
16ee
16gg
16eeJJ
=
16ffLL
16dd
16b
16ff
16ee
16ddJJ
!!linebreak:original
=
16eeLL
16ccc
16ff
16ccc
16ff#X
16cccJJ
=
8ggL
16cccL
16gg
16ccc
16ggJJ
=||
8eeL
16eeL
16ddJ
8ccJ
=
16eeLL
16dd
16ee
16ff
16gg
16cccJJ
=
8aaL
16aaL
16ffJ
[8ddJ
.
=
8ddL]
16ffL
16gg
16aa
16ffJJ
=
8bbL
16ffL
16gg
16aa
16ffJJ
!!linebreak:original
=
16bbLL
16aa
16gg
16aa
16gg
16ddJJ
=
8eeL
16eeL
16ffJ
[8ggJ
.
!!linebreak:original
=
8ggL]
16cccL
16gg
16ccc
16ggJJ
=
8eeL
16eeL
16ddJ
8ccJ
=
16eeLL
16dd
16ee
16ff
16gg
48ccL
48dd
48ddJJJ
=
8ffL
16ffL
16ggJ
[8ffJ
=
8ffL]
16ddL
16ee
16ff
16ddJJ
=
16ffLL
16ee
16cc
16dd
16ee
16ccJJ
=
16eeLL
16dd
16b
16cc
16dd
16bJJ
=
[4.cc
!!pagebreak:original
=
8ccL]
16cccL
16bb
16aa
16ggJJ
!!linebreak:original
=||
8ddL
16ddL
16ee
16ff
16ddJJ
=
8ggL
16ddL
16ee
16ff
16ddJJ
=
16eeLL
16dd
16ee
16ffJ
[8ggJ
.
=
8ggL]
16cccL
16bb
16aa
16ggJJ
=
8ddL
16ddL
16ee
16ff
16eeJJ
=
16eeLL
16dd
16ee
16ff
24gg
24aa
.
24bbJJ
=
8cccL
24bbL
24ccc
24bb
24aa
24bb
24aaJJ
!!linebreak:original
=
8ggL
16cccL
16bb
16aa
16ggJJ
=
8ddL
16ddL
16ee
16ff
16ddJJ
=
8ggL
16ddL
16ee
16ff
16ddJJ
=
16eeLL
16dd
16ee
16ffJ
[8eeJ
=
8eeL]
16ccL
16dd
16ee
16ccJJ
=
16aaLL
16cc
16ff
16aa
16ccc
16ffJJ
=
16eeLL
16gg
16ff
16dd
16ff
16eeJJ
=
[4.cc
!!linebreak:original
=
8ccL]
16cccL
16bb
16aa
16ggJJ
!!linebreak:original
=||
8ddL
16ddL
16ee
16ff
16ddJJ
=
8ggL
16ddL
16ee
16ff
16ddJJ
=
16eeLL
16dd
16ee
16ffJ
[8ggJ
.
=
8ggL]
16cccL
16bb
16aa
16ggJJ
=
8ddL
16ddL
16ee
16ff
16eeJJ
=
16eeLL
16dd
16ee
16ff
24gg
24aa
.
24bbJJ
=
8cccL
24bbL
24ccc
24bb
24aa
24bb
24aaJJ
!!linebreak:original
=
8ggL
16cccL
16bb
16aa
16ggJJ
=
8ddL
16ddL
16ee
16ff
16ddJJ
=
8ggL
16ddL
16ee
16ff
16ddJJ
=
16eeLL
16dd
16ee
16ffJ
[8eeJ
=
8eeL]
16ccL
16dd
16ee
16ccJJ
=
16aaLL
16cc
16ff
16aa
16ccc
16ffJJ
=
16eeLL
16gg
16ff
16dd
16ff
16eeJJ
=
8.ccL
16ccK
8ccJ
!!linebreak:original
=
8ddL
16cccL
16gg
16ccc
16ggJJ
=||
8eeL
16eeL
16ddJ
8ccJ
=
16eeLL
16dd
16ee
16ff
16gg
16cccJJ
=
8aaL
16aaL
16ffJ
[8ddJ
.
=
8ddL]
16ffL
16gg
16aa
16ffJJ
=
8bbL
16ffL
16gg
16aa
16ffJJ
!!pagebreak:original
=
16bbLL
16aa
16gg
16aa
16gg
16ddJJ
=
8eeL
16eeL
16ffJ
[8ggJ
.
=
8ggL]
16cccL
16gg
16ccc
16ggJJ
=
8eeL
16eeL
16ddJ
8ccJ
=
16eeLL
16dd
16ee
16ff
16gg
48ccL
48dd
48ddJJJ
=
8ffL
16ffL
.
16ggJ
.
[8aaJ
=
8aaL]
16ffL
16aa
16ff
16aaJJ
!!linebreak:original
=
16ggLL
16ee
16cc
16ee
16gg
16eeJJ
!!linebreak:original
=
16ffLL
16dd
16b
16ff
16ee
16ddJJ
=
16eeLL
16ccc
16ff
16ccc
16ff#X
16cccJJ
=
8ggL
16cccL
16gg
16ccc
16ggJJ
=||
8eeL
16eeL
16ddJ
8ccJ
=
16eeLL
16dd
16ee
16ff
16gg
16cccJJ
=
8aaL
16aaL
16ffJ
[8ddJ
.
=
8ddL]
16ffL
16gg
16aa
16ffJJ
!!linebreak:original
=
8bbL
16ffL
16gg
16aa
16ffJJ
!!pagebreak:original
=
16bbLL
16aa
16gg
16aa
16gg
16ddJJ
=
8eeL
16eeL
16ffJ
[8ggJ
.
=
8ggL]
16cccL
16gg
16ccc
16ggJJ
=
8eeL
16eeL
16ddJ
8ccJ
=
16eeLL
16dd
16ee
16ff
16gg
48ccL
48dd
48ddJJJ
=
8ffL
16ffL
16ggJ
[8ffJ
=
8ffL]
16ddL
16ee
16ff
16ddJJ
!!linebreak:original
=
16ffLL
16ee
16cc
16dd
16ee
16ccJJ
=
16eeLL
16dd
16b
16cc
16dd
16bJJ
=
[4.cc
!!linebreak:original
=||
*k[b-e-a-]
8ccL]
8gg
8aa-J
=||
8ggL
16ee-L
16ddJ
8ccJ
=
8ccL
8dd
8ccJ
=
8bnL
8cc
[8ddJ
=
8ddL]
8bn
8ccJ
=
8bnL
8dd
8ee-J
=
8ffL
8gg
8aa-J
=
8ggL
8ff
[8ee-J
=
8ee-L]
8gg
8ee-J
=
8ccL
16ddL
16ee-J
8ffJ
!!linebreak:original
=
8ggL
8aa-
[8ffJ
=
8ffL]
16ffL
16ggJ
8aa-J
=
8bb-L
8ccc
8aa-J
=
8ggL
8cc
8ee-J
=
8ddL
8ee-
8ffJ
=
8dd
[4cc
=
8ccL]
8gg
8aa-J
=||
8ggL
16ee-L
16ddJ
8ccJ
=
8ccL
8dd
8ccJ
=
8bnL
8cc
[8ddJ
!!linebreak:original
=
8ddL]
8bn
8ccJ
=
8bnL
8dd
8ee-J
=
8ffL
8gg
8aa-J
=
8ggL
8ff
[8ee-J
=
8ee-L]
8gg
8ee-J
=
8ccL
16ddL
16ee-J
8ffJ
!!linebreak:original
=
8ggL
8aa-
[8ffJ
=
8ffL]
16ffL
16ggJ
8aa-J
=
8bb-L
8bbn
[8aa-J
=
8aa-L]
16ffL
16aa-J
8cccJ
=||
8bbnL
8ccc
8dddJ
!!linebreak:original
=
8eee-L
16cccL
16ddd
16ccc
16aa-JJ
=
4gg
16ffLL
16ee-JJ
=
16ddLL
16ee-
16ff
16gg
16aa-
16cccJJ
=
24bbnLL
24ccc
24bbJ
8.aa-
16ffJk
=
4.gg
.
.
=
24ee-LL
24ff
24ee-J
8.dd
16ggJk
=||
[4.cc
=||
*k[]
8ccL]
16cccL
16gg
16ccc
16ggJJ
!!pagebreak:original
=||
*k[b-e-a-]
!LO:TX:a:t=ritardando
8bbnL
8ccc
8dddJ
=
8eee-L
16cccL
16ddd
16ccc
16aa-JJ
=
*MM83.5
!LO:TX:a:t=[eighth]=167
4gg;
16ffLL
16ee-JJ
=
16ddLL
16ee-
16ff
16gg
16aa-
16cccJJ
=
24bbnLL
24ccc
24bbJ
8.aa-
16ffJk
=
4.gg
.
.
=
24ee-LL
24ff
24ee-J
8.dd
16ggJk
!!linebreak:original
=
8ccL
24ddL
24een
24ff
24gg
24aan
24bbnJJ
!!linebreak:original
=
16ccc
16r
4r
==
*-
!!!system-decoration: s1,s2
